Adwaita++-Dark/actions/22/format-align-vertical-center.svg

<svg height="22" viewBox="0 0 22 22" width="22" xmlns="http://www.w3.org/2000/svg">
  <path d="m7.0175781 0-.03125 4.46875-3.6152343-3.65625-1.3710938 1.40625 6.015625 5.78125 5.984375-5.78125-1.371094-1.40625-3.6464841 3.65625.03125-4.46875zm.9980469 8-6.015625 5.78125 1.3710938 1.40625 3.6152343-3.65625.03125 4.46875h1.9960938l-.03125-4.46875 3.6464841 3.65625 1.371094-1.40625z" fill="#e6ddff" transform="translate(3 3)"/>
</svg>

<svg xmlns="http://www.w3.org/2000/svg" width="22" height="22" viewBox="0 0 22 22">
 <defs>
  <style id="current-color-scheme" type="text/css">
   .ColorScheme-Text { color:#E6DDFF; } .ColorScheme-Highlight { color:#4285f4; }
  </style>
 </defs>
 <path style="fill:currentColor" class="ColorScheme-Text" d="M 7.0175781 0 L 6.9863281 4.46875 L 3.3710938 0.8125 L 2 2.21875 L 8.015625 8 L 14 2.21875 L 12.628906 0.8125 L 8.9824219 4.46875 L 9.0136719 0 L 7.0175781 0 z M 8.015625 8 L 2 13.78125 L 3.3710938 15.1875 L 6.9863281 11.53125 L 7.0175781 16 L 9.0136719 16 L 8.9824219 11.53125 L 12.628906 15.1875 L 14 13.78125 L 8.015625 8 z" transform="translate(3 3)"/>
</svg>
